!!!COM: Mozart, Wolfgang Amadeus
!!!OPR: Quartet in C Major
!!!OTL:
!!!OMV: 2
!!!SCT: K 465
!!!SCA: Chronologisch-thematisches Verzeichnis sämtlicher Tonwerke Wolfgang Amade Mozarts (L. von Köchel; 1862, 2/1905, 3/1937, 1947)
!!!YOR: Breitkopf & Härtel Edition
!!!EED: Frances Bennion
!!!ENC: Frances Bennion
!!!CDT: 1756/1/27/-1791/12/5/
!!!OCY: Österreich
!!!YEC: Copyright (c) 1994, 2000 Center for Computer Assisted Research in the Humanities
!!!YEM: Rights to all derivative editions reserved.
!!!YEM: Refer to licensing agreement for further details.
!!!YEN: United States of America
**kern	**kern	**kern	**kern
*k[b-]	*k[b-]	*k[b-]	*k[b-]
*F:	*F:	*F:	*F:
*clefG	*clefG	*clefF	*clefC
*M3/4	*M3/4	*M3/4	*M3/4
*tb32	*tb32	*tb32	*tb32
=1	=1	=1	=1
4cc	4a	4c	4F
4.f	4.c	4.A	4AA
.	.	.	4C
8g	8e	16B-	.
.	.	16G	.
=2	=2	=2	=2
4b-	4g	4E	2FF
4a	8f	8F	.
.	8f	8F	.
8r	8e	8G	4r
8f	8e-	8A	.
=3	=3	=3	=3
8f	8d	8B-	8F
4b-	4f	4d	8r
.	.	.	8D
4dd	4b-	4f	8r
.	.	.	8BB-
8ff	8dd	8b-	8r
=4	=4	=4	=4
8ee	8cc	4f	4FF
16dd	16b-	.	.
32cc	32a	.	.
32dd	32b-	.	.
4cc	4a	2r	8r
.	.	.	8F
4r	4r	.	8G
.	.	.	8A
=5	=5	=5	=5
2g	4f	4d	8BB
.	.	.	8BB
.	4e	2c	8C
.	.	.	8C
4a	[4e-	.	8FF#
.	.	.	8FF#
=6	=6	=6	=6
4cc	4e-]	4F#	8GG
.	.	.	8GG
4.b-	8d	4G	8GG
.	8e	.	8GG
.	4f	4C	8AA
[8a	.	.	8AA
=7	=7	=7	=7
16a]	4d	8D	8BB-
16g	.	.	.
16b-	.	16G	8BB-
16d	.	16B-	.
4f	4c	4A	8C
.	.	.	8C
4g	4e	4c	8C
.	.	.	8C
=8	=8	=8	=8
8.a	8.f	4c	4FF
16b-	16g	.	.
4cc	4a	2r	8r
.	.	.	8F
4r	4r	.	8c
.	.	.	8B-
=9	=9	=9	=9
4ff	4.cc	4c	8A
.	.	.	8A
8ee	.	8b-	8G
8ff	8cc	8a	8F
8gg	8cc	8g	8E
8aa	8cc	8f	8D
=10	=10	=10	=10
[8bb-	4cc	4e	4C
32bb-]	.	.	.
32gg	.	.	.
32ee	.	.	.
32cc	.	.	.
8b-	8r	8r	8r
4r	4b-	8e	8C
.	.	8g	8E
16a	8a	8f	8F
16ff	.	.	.
=11	=11	=11	=11
8.ff	8.dd	2f	8BB-
.	.	.	8BB-
16dd	16b-	.	.
[4cc	4.a	.	8C
.	.	.	8C
16cc]	.	4e	8C
16cc#	.	.	.
16dd	16b-	.	8C
16b-	16g	.	.
=12	=12	=12	=12
16b-	16g	8c	4F
16a	16f	.	.
16g	16e	16B-	.
16f	16f	16A	.
4f	[4c	4.A	8r
.	.	.	8FF
4r	16c]	.	8AA
.	16c#	.	.
.	16d	16B-	8C
.	16B-	16G	.
=13	=13	=13	=13
8r	8A	8F	4F
16cc	8a	8f	.
16b	.	.	.
8dd	8a	8f	8r
8cc	8a	8f	16F
.	.	.	16E
8r	8a	8c	8G
8cc	8a	8c	8F
=14	=14	=14	=14
8r	8g	8c	4E
16cc	8g	8e	.
16b	.	.	.
8dd	8g	8e	8r
8cc	8g	8e	16E
.	.	.	16D
8r	8g	8c	8F
8cc	8g	8c	8E
=15	=15	=15	=15
8r	8cc	8d	4D
16ff	8cc	8d	.
16ee	.	.	.
8gg	8cc	8d	8r
8ff	8cc	8d	16G
.	.	.	16F#
8r	8b	8d	8A
8ff	8b	8d	8G
=16	=16	=16	=16
8r	8cc	8c	4C
16ee	8cc	8g	.
16dd	.	.	.
8ff	8cc	8g	8r
8ee	8cc	8g	16c
.	.	.	16B
8r	8cc	8g	8d
8ee	8cc	8g	8c
=17	=17	=17	=17
8r	8cc	8b-	4E
16gg	8cc	8b-	.
16ff#	.	.	.
8aa	8cc	8b-	8r
8gg	8cc	8b-	16E
.	.	.	16D
8r	8cc	8b-	8F
8gg#	8cc	8b-	8E
=18	=18	=18	=18
8r	8cc	8a	4F
16aa	8cc	8f	.
16gg#	.	.	.
8bb-	8cc	8f	8r
8aa	8cc	8f	16F
.	.	.	16E
8r	8cc	8c	8G
8aa	8cc	8c	8F
=19	=19	=19	=19
8r	8c	8A	4F#
16dd	8c	8A	.
16cc#	.	.	.
8ee	8c	8A	8r
8dd	8c	8A	16F#
.	.	.	16E
8r	8c	8A	8G
8dd	8c	8A	8F#
=20	=20	=20	=20
8dd	8B	8G	4G
8g	16d	16B	.
.	16c	16A	.
2g	8e	8c	8r
.	8d	8B	16GG
.	.	.	16FF#
.	8r	8r	8AA
.	16e	16c	8GG
.	16d	16B	.
=21	=21	=21	=21
2g	8f	8d	8r
.	8e	8c	16GG
.	.	.	16FF#
.	8r	8r	8AA
.	16f	16d	8GG
.	16e	16c#	.
[4gg	8g	8e	8r
.	8f	8d	16GG
.	.	.	16FF#
=22	=22	=22	=22
4gg]	8r	8r	8AA
.	16g	16e	8GG
.	16f#	16d#	.
[2gg	8a	8f	8r
.	8g	8e	8GG
.	8f	8d	8BB
.	8e	8c	8C
=23	=23	=23	=23
8gg]	4d	4B	4G
16gg	.	.	.
16ff#	.	.	.
16aa	2r	2r	2r
16gg	.	.	.
16ff	.	.	.
16ee	.	.	.
16gg	.	.	.
16ff	.	.	.
16ee	.	.	.
16dd	.	.	.
=24	=24	=24	=24
16cc#	8f	8B	8G
16dd	.	.	.
16cc#	8f	8B	8G
16dd	.	.	.
16cc#	8f	8B	8G
16dd	.	.	.
8r	4.r	4.r	4.r
32r	.	.	.
32dd	.	.	.
32ff	.	.	.
32ee	.	.	.
32dd	.	.	.
32cc	.	.	.
32b	.	.	.
32a	.	.	.
=25	=25	=25	=25
16a	8f	8d	8B
16g	.	.	.
16a	8f	8d	8B
16g	.	.	.
16a	8f	8d	8B
16g	.	.	.
4.r	4.r	4.r	4.r
=26	=26	=26	=26
2.r	2.r	2.r	16C
.	.	.	16BB
.	.	.	16C
.	.	.	16GG
.	.	.	16C
.	.	.	16BB
.	.	.	16C
.	.	.	16GG
.	.	.	16C
.	.	.	16BB
.	.	.	16C
.	.	.	16GG
=27	=27	=27	=27
4c	2G	4f	16D
.	.	.	16C#
.	.	.	16D
.	.	.	16GG
4B	.	8f	16D
.	.	.	16C#
.	.	8f	16D
.	.	.	16GG
4r	4r	8f	16D
.	.	.	16C#
.	.	8f	16D
.	.	.	16GG
=28	=28	=28	=28
2g	4cc	4f	16C
.	.	.	16BB
.	.	.	16C
.	.	.	16GG
.	8cc	4e	16C
.	.	.	16BB
.	8cc	.	16C
.	.	.	16GG
4r	8cc	4r	16C
.	.	.	16BB
.	8cc	.	16C
.	.	.	16GG
=29	=29	=29	=29
4ff	4cc	2g	16D
.	.	.	16C#
.	.	.	16D
.	.	.	16GG
8ff	4b	.	16D
.	.	.	16C#
8ff	.	.	16D
.	.	.	16GG
8ff	4r	4r	16D
.	.	.	16C#
8ff	.	.	16D
.	.	.	16GG
=30	=30	=30	=30
4ff	4.b-	4.g	16C
.	.	.	16BB
.	.	.	16C
.	.	.	16GG
8ee	.	.	16C
.	.	.	16BB
8bb-	8ee	8g	16C
.	.	.	16GG
8bb-	8ee	8g	16C
.	.	.	16BB
8bb-	8ee	8g	16C
.	.	.	16GG
=31	=31	=31	=31
4bb- 4cc	4gg 4b-	4c	4EE
4aa 4cc	4ff 4a	4c	4FF
4r	4r	4r	4r
=32	=32	=32	=32
4dd	4cc 4a	4f	2.r
8dd	8cc 8a	8f	.
8dd	8cc 8a	8f	.
8dd	8cc 8a	8f	.
8dd	8cc 8a	8f	.
=33	=33	=33	=33
16dd	4cc 4a-	4f	2.r
32ee-	.	.	.
32ff	.	.	.
16ee-	.	.	.
16dd	.	.	.
8dd	8cc 8a-	8f	.
8dd	8cc 8a-	8f	.
8dd	8cc 8a-	8f	.
8dd	8cc 8a-	8f	.
=34	=34	=34	=34
8.a	4d	2c	4F#
16dd	.	.	.
4cc	4e	.	4G
4b	4f	4d	4G#
=35	=35	=35	=35
2cc	8e	8c	4A
.	8c	8C	.
.	8c#	8C#	4AA
.	8d	8D	.
8.b-	8e-	8E-	4GG
.	8e	8E	.
32a	.	.	.
32b-	.	.	.
=36	=36	=36	=36
8a	8f	8F	4FF
4aa	8cc	8f	.
.	8cc	8f	4r
16aa	8cc	8f	.
16bb	.	.	.
16ddd	8cc	8f	4F
16ccc	.	.	.
16bb	8cc	8f	.
16aa	.	.	.
=37	=37	=37	=37
4.gg	8cc	2.g	4E
.	4gg	.	.
.	.	.	4D
8aa	8ff#	.	.
8bb	8ff	.	4C
8ccc	8ee	.	.
=38	=38	=38	=38
16gg	8r	8r	8G
16ff#	.	.	.
16ff	8cc	8e	8G
16ee	.	.	.
2dd	8cc	8f	8G
.	8cc	8f	8G
.	8b	8f	8G
.	8b	8f	8G
=39	=39	=39	=39
4cc	2.cc	2.e	8C
.	.	.	16C
.	.	.	16BB
8r	.	.	8D
16cc	.	.	8C
16b	.	.	.
8dd	.	.	8r
8cc	.	.	8C
=40	=40	=40	=40
8ee	2.b	2.f	8r
8dd	.	.	16C
.	.	.	16BB
8r	.	.	8D
16dd	.	.	8C
16cc#	.	.	.
8ee	.	.	8r
8dd	.	.	8C
=41	=41	=41	=41
8ff	2b-	2g	8r
8ee	.	.	16C
.	.	.	16BB
8r	.	.	8D
16ff	.	.	8C
16ee	.	.	.
8gg	[4a	4f	8r
8ff	.	.	16C
.	.	.	16BB
=42	=42	=42	=42
8r	4a]	4c	8D
16gg	.	.	8C
16ff#	.	.	.
8aa	2e	2B-	8r
8gg	.	.	16C
.	.	.	16BB
8r	.	.	8D
16aa	.	.	8C
16gg	.	.	.
=43	=43	=43	=43
8bb-	4f	4A	8r
8aa	.	.	16C
.	.	.	16BB
8r	4A	4F	8D
16bb-	.	.	8C
16aa	.	.	.
8ccc	4G	4E	8r
8bb-	.	.	16C
.	.	.	16BB
=44	=44	=44	=44
8r	2G	2E	8D
16b-	.	.	8C
16a	.	.	.
8cc	.	.	2r
4b-	.	.	.
.	4r	4r	.
8b	.	.	.
=45	=45	=45	=45
16.cc	16.a	4c	4F
32a	32f	.	.
16.cc	16.a	.	.
32a	32f	.	.
4.f	4.c	4.A	4AA
.	.	.	4C
8g	8e	16B-	.
.	.	16G	.
=46	=46	=46	=46
4b-	4g	4E	2FF
4a	8f	8F	.
.	8f	8F	.
8r	8e	8G	4r
[8f	8e-	8A	.
=47	=47	=47	=47
16f]	8d	8B-	8F
16d	.	.	.
8.b-	4f	4d	8r
.	.	.	8D
16f	.	.	.
8.dd	4b-	4f	8r
.	.	.	8BB-
16b-	.	.	.
[8ff	[8dd	8b-	8r
=48	=48	=48	=48
16ff]	16dd]	4f	4FF
16ee	16cc#	.	.
16ee-	16cc	.	.
16dd	16b-	.	.
4cc	4a	2r	8r
.	.	.	8F
4r	4r	.	8D
.	.	.	8C
=49	=49	=49	=49
4.g	4f	4d	8BB
.	.	.	8BB
.	4e	2c	8C
32a	.	.	8C
32g	.	.	.
32f#	.	.	.
32g	.	.	.
8b-	[4e-	.	8FF#
8a	.	.	8FF#
=50	=50	=50	=50
8cc	8e-]	8F#	8GG
8b	8d	8G	8GG
4.b-	4e	4G	8CC#
.	.	.	8CC#
.	4f	4F	8DD
[8a	.	.	8DD
=51	=51	=51	=51
16a]	4d	4B-	8BB-
16g	.	.	.
16b-	.	.	8BB-
16d	.	.	.
8f	4c	4A	8C
8f#	.	.	8C
8g	4e	4c	8C
8g#	.	.	8C
=52	=52	=52	=52
8.a	8.f	4c	4FF
16b-	16g	.	.
4cc	4a	2r	8r
.	.	.	8c
4r	4r	.	8B
.	.	.	8B-
=53	=53	=53	=53
8.ff	4.cc	4c	8A
.	.	.	8A
32gg	.	.	.
32ff	.	.	.
8ee	.	8b-	8G
8ff	8cc	8a	8F
8gg	8cc	8g	8E
8aa	8cc	8f	8D
=54	=54	=54	=54
[8bb-	4cc	4e	4C
32bb-]	.	.	.
32gg	.	.	.
32ee	.	.	.
32cc	.	.	.
8b-	8r	8r	8r
4r	4b-	8e	8C
.	.	8g	8C#
16a	8a	8f	8D
16ff	.	.	.
=55	=55	=55	=55
8.ff	8.dd	4.f	8BB-
.	.	.	8BB-
16dd	16b-	.	.
16cc	16a	.	8C
16aa	16ff	.	.
16gg	16ee	8c	8C
16ff	16dd	.	.
16ee	16cc	8r	8C
16dd	16b-	.	.
16cc	16a	8c	8C
16b-	16g	.	.
=56	=56	=56	=56
16b-	16g	8c	4F
16a	16f	.	.
16g	16e	16B-	.
16f	16f	16A	.
4f	16c	16A	8r
.	16a	16f	.
.	16g	16e	8AA
.	16f	16d	.
4r	16e	16c	8C
.	16d	16B-	.
.	16c	16A	8EE
.	16B-	16G	.
=57	=57	=57	=57
[4cc	8A	8F	8EE-
.	8A	8F	8EE-
16cc]	8A	8F	8EE-
16gg	.	.	.
16ff	8A	8F	8EE-
16ee-	.	.	.
16dd	8f	8A	8E-
16cc	.	.	.
16b-	8f	8c	8E-
16a	.	.	.
=58	=58	=58	=58
8cc	8f	8d	8r
8b-	8f	8d	16D
.	.	.	16C
8r	8f	8B-	8E-
16b-	8f	8B-	8D
16a	.	.	.
8cc	8f	8d	4r
8b	8f	8d	.
=59	=59	=59	=59
8dd	8f	8e-	8r
8cc	8f	8e-	16AA
.	.	.	16GG
8r	8f	8e-	8BB-
16cc	8f	8e-	8AA
16b	.	.	.
8dd	8f	8e-	4r
8cc	8f	8e-	.
=60	=60	=60	=60
8ee-	8f#	8c	8r
8dd	8f#	8c	16A
.	.	.	16G
8r	8f#	8c	8B-
16dd	8f#	8c	8A
16cc#	.	.	.
8ee-	8f#	8c	4r
8dd	8f#	8c	.
=61	=61	=61	=61
4.dd	8g	8B-	8r
.	8g	8B-	16G
.	.	.	16F#
.	8g	8B-	8A
16bb-	8g	8d	8G
16aa	.	.	.
8ccc	8g	8d	4r
8bb-	8g	8d	.
=62	=62	=62	=62
8b-	8g	8e	8r
8a	8g	8e	16C#
.	.	.	16BB
8r	8g	8e	8D
16a	8g	8e	8C#
16g#	.	.	.
8b-	8g	8e	4r
8a	8g	8e	.
=63	=63	=63	=63
4.a	8f	8d	8r
.	8f	8d	16D
.	.	.	16C#
.	8f	8d	8E
16ff	8a	8d	8D
16ee	.	.	.
8gg	8a	8d	4r
8ff	8a	8d	.
=64	=64	=64	=64
8a	8f	8d	8r
8g	8f	8d	16BB-
.	.	.	16AA
8r	8f	8d	8C
16g	8f	8d	8BB-
16f#	.	.	.
8a	8f	8d	8r
8g	8f	8d	8BB-
=65	=65	=65	=65
8gg	8f	8d	8r
8ff	8g	8d	16BB
.	.	.	16AA
8r	8g	8f 8d	8C
16g	8g	8f 8d	8BB
16f#	.	.	.
8a	8g	8f 8d	8r
8g	8g	8f 8d	8BB
=66	=66	=66	=66
8gg	8g	8f 8c	8r
8ff	8g	8f 8c	16C
.	.	.	16BB
8r	8g	8f 8c	8D
16g	8g	8f 8c	8C
16f#	.	.	.
8a	8g	8f 8c	8r
8g	8g	8f 8c	8C
=67	=67	=67	=67
8gg	8g	8f 8B	8r
8ff	8g	8f 8B	16D-
.	.	.	16C
8r	8g	8f 8B	8E-
16gg	8b	8f	8D-
16ff	.	.	.
8aa-	8b	8f	8r
8ff	8b	8f	8D-
=68	=68	=68	=68
16ff	8cc	8g	4C
16ee	.	.	.
16dd	8g	16f	.
16cc	.	16e	.
[2cc	8r	8r	4CC
.	16g	16e	.
.	16f#	16d	.
.	8a	8f	8r
.	8g	8e	16E
.	.	.	16C
=69	=69	=69	=69
8cc]	8b-	8e	8G
16cc	8a	8f	8F
16b	.	.	.
8dd	8r	8r	8B
8cc	16a	16f	8c
.	16g#	16e	.
[4cc	8b-	8g	8r
.	8a	8f	16F
.	.	.	16C
=70	=70	=70	=70
8cc]	8cc	8f#	8A
16ccc	8b-	8g	8G
16bb	.	.	.
8ddd	8r	8r	8B
8ccc	16b-	16g	8c
.	16a	16f#	.
[4ccc	8cc	8a	8r
.	8b-	8g	16G
.	.	.	16C
=71	=71	=71	=71
2.ccc_	8dd	8e	8B-
.	8cc	4f	8A
.	8b	.	8A-
.	8b-	8e	8G
.	8a	8f	8F
.	8a-	8f	8BB
=72	=72	=72	=72
8ccc]	4g	4e	4C
16ccc	.	.	.
16bb	.	.	.
16ddd	2r	2r	2r
16ccc	.	.	.
16bb-	.	.	.
16aa	.	.	.
16ccc	.	.	.
16bb-	.	.	.
16aa	.	.	.
16gg	.	.	.
=73	=73	=73	=73
16ff#	8b-	8e	8C
16gg	.	.	.
16ff#	8b-	8e	8C
16gg	.	.	.
16ff#	8b-	8e	8C
16gg	.	.	.
8r	4.r	4.r	4.r
32r	.	.	.
32gg	.	.	.
32bb-	.	.	.
32aa	.	.	.
32gg	.	.	.
32ff	.	.	.
32ee	.	.	.
32dd	.	.	.
=74	=74	=74	=74
16dd	8b-	8g	8e
16cc	.	.	.
16dd	8b-	8g	8e
16cc	.	.	.
16dd	8b-	8g	8e
16cc	.	.	.
4.r	4.r	4.r	4.r
=75	=75	=75	=75
2.r	2.r	2.r	16F
.	.	.	16E
.	.	.	16F
.	.	.	16C
.	.	.	16F
.	.	.	16E
.	.	.	16F
.	.	.	16C
.	.	.	16F
.	.	.	16E
.	.	.	16F
.	.	.	16C
=76	=76	=76	=76
4f	2c	4b-	16G
.	.	.	16F#
.	.	.	16G
.	.	.	16C
4e	.	8b-	16G
.	.	.	16F#
.	.	8b-	16G
.	.	.	16C
4r	4r	8b-	16G
.	.	.	16F#
.	.	8b-	16G
.	.	.	16C
=77	=77	=77	=77
2cc	4ff	4b-	16F
.	.	.	16E
.	.	.	16F
.	.	.	16C
.	8ff	4a	16F
.	.	.	16E
.	8ff	.	16F
.	.	.	16C
4r	8ff	4r	16F
.	.	.	16E
.	8ff	.	16F
.	.	.	16C
=78	=78	=78	=78
4bb-	4ff	2cc	16G
.	.	.	16F#
.	.	.	16G
.	.	.	16C
8bb-	4ee	.	16G
.	.	.	16F#
8bb-	.	.	16G
.	.	.	16C
8bb-	4r	4r	16G
.	.	.	16F#
8bb-	.	.	16G
.	.	.	16C
=79	=79	=79	=79
4bb-	4.ee-	4.cc	16F
.	.	.	16E
.	.	.	16F
.	.	.	16C
8aa	.	.	16F
.	.	.	16E
8eee-	8aa	8cc	16F
.	.	.	16C
8eee-	8aa	8cc	16F
.	.	.	16E
8eee-	8aa	8cc	16F
.	.	.	16C
=80	=80	=80	=80
4eee- 4ff	4ccc 4ee-	4f	4AA
4ddd 4ff	4bb- 4dd	4f	4BB-
4r	4r	4r	4r
=81	=81	=81	=81
4g	4f 4d	4B-	2.r
8g	8f 8d	8B-	.
8g	8f 8d	8B-	.
8g	8f 8d	8B-	.
8g	8f 8d	8B-	.
=82	=82	=82	=82
16g	4f 4d-	4B-	2.r
32a-	.	.	.
32b-	.	.	.
16a-	.	.	.
16g	.	.	.
8g	8f 8d-	8B-	.
8g	8f 8d-	8B-	.
8g	8f 8d-	8B-	.
8g	8f 8d-	8B-	.
=83	=83	=83	=83
8.d	4G	2F	4BB
16g	.	.	.
4f	4A	.	4C
8.g	4B-	4E	4C#
16f	.	.	.
=84	=84	=84	=84
4f	4A	4F	4D
2r	2r	2r	2r
=85	=85	=85	=85
2.r	2.r	4F	16FF
.	.	.	16EE
.	.	.	16FF
.	.	.	16CC
.	.	8F	16FF
.	.	.	16EE
.	.	8F	16FF
.	.	.	16CC
.	.	8F	16FF
.	.	.	16EE
.	.	8F	16FF
.	.	.	16CC
=86	=86	=86	=86
2.r	4B-	4F	16GG
.	.	.	16FF#
.	.	.	16GG
.	.	.	16CC
.	8B-	4E	16GG
.	.	.	16FF#
.	8B-	.	16GG
.	.	.	16CC
.	8B-	4r	16GG
.	.	.	16FF#
.	8B-	.	16GG
.	.	.	16CC
=87	=87	=87	=87
4f	4B-	2c	16FF
.	.	.	16EE
.	.	.	16FF
.	.	.	16CC
8f	4A	.	16FF
.	.	.	16EE
8f	.	.	16FF
.	.	.	16CC
8f	4r	4r	16FF
.	.	.	16EE
8f	.	.	16FF
.	.	.	16CC
=88	=88	=88	=88
4f	2c	4b-	16GG
.	.	.	16FF#
.	.	.	16GG
.	.	.	16CC
4e	.	8b-	16GG
.	.	.	16FF#
.	.	8b-	16GG
.	.	.	16CC
4r	4r	8b-	16GG
.	.	.	16FF#
.	.	8b-	16GG
.	.	.	16CC
=89	=89	=89	=89
2c	4cc	4b-	16FF
.	.	.	16EE
.	.	.	16FF
.	.	.	16CC
.	8cc	4a-	16FF
.	.	.	16EE
.	8cc	.	16FF
.	.	.	16CC
4r	8cc	4f	16AA-
.	.	.	16GG
.	8cc	.	16AA-
.	.	.	16FF
=90	=90	=90	=90
4dd-	4cc	2f	16BB-
.	.	.	16AA
.	.	.	16BB-
.	.	.	16FF
8dd-	[2b-	.	16D-
.	.	.	16C
8dd-	.	.	16D-
.	.	.	16BB-
8dd-	.	[4e-	16GG
.	.	.	16FF
8dd-	.	.	16GG
.	.	.	16EE-
=91	=91	=91	=91
4dd-	4b-]	2e-]	16AA-
.	.	.	16GG
.	.	.	16AA-
.	.	.	16EE-
8cc	[2a-	.	16C
.	.	.	16BB-
8cc	.	.	16C
.	.	.	16AA-
8cc	.	[4d	16FF
.	.	.	16EE-
8cc	.	.	16FF
.	.	.	16DD
=92	=92	=92	=92
8cc	8a-]	4.d]	16GG
.	.	.	16FF
8b	4g	.	16GG
.	.	.	16DD
8b-	.	.	16BB-
.	.	.	16AA-
8b-	8g	8d-	16BB-
.	.	.	16GG
8b-	8g	[4c	16EE
.	.	.	16DD
8b-	8g	.	16EE
.	.	.	16CC
=93	=93	=93	=93
8b-	8g	4.c]	16FF
.	.	.	16EE
8a	4f	.	16FF
.	.	.	16CC
8a-	.	.	16AA-
.	.	.	16GG
8a-	8f	8c	16AA-
.	.	.	16FF
8a-	8f	8A-	16D-
.	.	.	16C
8a-	8f	8F	16D-
.	.	.	16C
=94	=94	=94	=94
4g	4g	4f 4d-	4BB-
2r	8g	8f 8d-	8BB-
.	8g	8f 8d-	8BB-
.	8g	8f 8d-	8BB-
.	8g	8f 8d-	8BB-
=95	=95	=95	=95
16gg	4g	4e 4d-	4BB-
32aa-	.	.	.
32bb-	.	.	.
16aa-	.	.	.
16gg	.	.	.
8gg	8g	8e 8d-	8BB-
8gg	8g	8e 8d-	8BB-
16ff	4a-	4f 4d	4BB
32gg	.	.	.
32aa-	.	.	.
16gg	.	.	.
16ff	.	.	.
=96	=96	=96	=96
8ff	8a-	8f 8d	8BB
8ff	8a-	8f 8d	8BB
4ff	4a	4f 4c	4C
8.gg	4e	4B-	4C#
16ff	.	.	.
=97	=97	=97	=97
4ff	8f	8A	4D
.	8f	8F	.
4ee	8f#	8F#	4C
.	8g	8G	.
4ee-	8a-	8A-	4FF
.	8a	8A	.
=98	=98	=98	=98
8cc#	8b-	8B-	4BB-
[8dd	8f	8B-	.
32dd]	8f	8B-	4r
32ee	.	.	.
32dd	.	.	.
32cc#	.	.	.
32dd	8f	8B-	.
32ee	.	.	.
32dd	.	.	.
32ee	.	.	.
16gg	8f	8B-	4BB-
16ff	.	.	.
16ee	8f	8B-	.
16dd	.	.	.
=99	=99	=99	=99
4.cc	8f	2.c	4AA
.	4cc	.	.
.	.	.	4GG
8dd	8b	.	.
8ee	8b-	.	4FF
8ff	8a	.	.
=100	=100	=100	=100
16cc	8r	8r	8C
16b	.	.	.
16b-	8f	8A	8C
16a	.	.	.
2g	8f	8B-	8C
.	8f	8B-	8C
.	8e	8B-	8C
.	8e	8B-	8C
=101	=101	=101	=101
4f	8f	16A	8FF
.	.	16A	.
.	16c	16A	8r
.	16B	16A	.
2r	8d	16F	8AA
.	.	16F	.
.	8c	16F	8r
.	.	16F	.
.	8r	16A	8FF
.	.	16A	.
.	8c	16A	8r
.	.	16A	.
=102	=102	=102	=102
2b-	8r	16E	8GG
.	.	16E	.
.	16c	16E	8r
.	16B	16E	.
.	8d	16G	8EE
.	.	16G	.
.	8c	16G	8r
.	.	16G	.
8.g	8r	16E	8BB-
.	.	16E	.
.	8c	16E	8r
16e	.	16G	.
=103	=103	=103	=103
2cc	8r	16F	8AA
.	.	16F	.
.	16f	16F	8r
.	16e	16F	.
.	8g	16F	8AA
.	.	16F	.
.	8f	16F	8r
.	.	16F	.
4dd	8r	16F	8BB-
.	.	16F	.
.	8f	16F	8r
.	.	16F	.
=104	=104	=104	=104
2f	8r	16A	8C
.	.	16A	.
.	16c	16A	8r
.	16B	16A	.
.	8d	16A	8C
.	.	16A	.
.	8c	16A	8r
.	.	16A	.
4g	8r	16E	8CC
.	.	16E	.
.	8c	16E	8r
.	.	16E	.
=105	=105	=105	=105
4b-	8r	16G	8FF
.	.	16G	.
.	16c	16G	8r
.	16B	16G	.
4a	8d	16F	8F
.	.	16F	.
.	8c	16F	8r
.	.	16F	.
4r	8r	16f	8A
.	.	16f	.
.	8c	16f	8r
.	.	16f	.
=106	=106	=106	=106
2bb-	8r	16e	8G
.	.	16e	.
.	16cc	16e	8r
.	16b	16e	.
.	8dd	16g	8E
.	.	16g	.
.	8cc	16g	8r
.	.	16g	.
8.gg	8r	16e	8B-
.	.	16e	.
.	8cc	16e	8r
16ee	.	16g	.
=107	=107	=107	=107
4.ccc	8r	16f	8A
.	.	16f	.
.	16ff	16f	8r
.	16ee	16f	.
.	8gg	16e-	4A
.	.	16e-	.
8ccc#	8ff	16e-	.
.	.	16e-	.
8ddd	8r	16d	8B-
.	.	16d	.
8fff	8ff	16a-	8B
.	.	16a-	.
=108	=108	=108	=108
2ff	8r	16a	8c
.	.	16a	.
.	16cc	16a	8r
.	16b	16a	.
.	8dd	16a	8C
.	.	16a	.
.	8cc	16a	8r
.	.	16a	.
8.gg	8r	16e	8C
.	.	16e	.
.	8b-	16e	8r
32ff	.	16e	.
32gg	.	.	.
=109	=109	=109	=109
4ff	16a	16f	8r
.	16a	16c	.
.	16a	16c	16F
.	16a	16c	16E
4r	16a	16c	8G
.	16a	16c	.
.	16a	16c	8F
.	16a	16c	.
8ee-	16a	16c	8r
.	16a	16c	.
8r	16a	16c	8F
.	16a	16c	.
=110	=110	=110	=110
8dd	16b-	16B-	8r
.	16f	16B-	.
8r	16f	16B-	16F
.	16f	16B-	16E
8dd-	16f	16B-	8G
.	16e	16B-	.
8r	16e	16B-	8F
.	16e	16B-	.
[4cc	16f	16A	8r
.	16e-	16A	.
.	16e-	16A	8F
.	16e-	16A	.
=111	=111	=111	=111
8cc]	16d	16f	8r
.	16d	16f	.
8b	16d	16f	16FF
.	16d	16f	16EE
4b-	16e	16d-	8GG
.	16e	16d-	.
.	16e	16d-	8FF
.	16e	16d-	.
4a	16f	16c	8r
.	16f	16c	.
.	16f	16c	8FF
.	16f	16c	.
=112	=112	=112	=112
2g	16d-	16E	8r
.	16d-	16E	.
.	16d-	16E	16FF
.	16d-	16E	16EE
.	16c	16E	8GG
.	16c	16E	.
.	16c	16E	8FF
.	16c	16E	.
4cc	16B-	16E	8r
.	16B-	16E	.
.	16B-	16E	8FF
.	16B-	16E	.
=113	=113	=113	=113
8f	16A	16F	16FF
.	16A	16C	16EE
8r	16A	16C	16FF
.	16A	16C	16CC
8f	16A	16C	16FF
.	16A	16C	16EE
8r	16A	16C	16FF
.	16A	16C	16CC
8f	16A	16C	16FF
.	16A	16C	16EE
8r	16A	16C	16FF
.	16A	16C	16CC
=114	=114	=114	=114
2f	2A	2C	2FF
4r	4r	4r	4r
==	==	==	==
*-	*-	*-	*-
!!!RWG1: This file contains only pitch and duration data.
!!!RWG2: Transposing instruments are not transposed.
!!!RWG3: Spines may have incompatible meters.
!!!RWG4: Durations of rests and tied notes may be interpreted.
!!!RWG: Key is interpreted using the Humdrum key tool.
!!!AFT: stage1
!!!END: 1997/04/15
!!format changes:
!!content changes:
!!public access: complete
!!!KEY: 965472795
!!!EMD: Converted from MuseData to Humdrum Dec 16, 2000, by Andreas Kornstaedt using muse2kern.
